#coding: UTF-8

import turtle
import time
t = turtle.Pen()
for i in range(0, 4):
	t.forward(100)
	t.left(90)
	time.sleep(1)

#time.sleep(3)
t.reset()
t.backward(100)
t.up()
t.right(90)
t.forward(20)
t.left(90)
# 放下画笔，开始作画
t.down()
# 画另一条平行线
t.forward(100)
#time.sleep(3)

t.reset()

#画等边三角形
t.forward(100)
t.left(120)
t.forward(100)
t.right(60)
t.backward(100)

time.sleep(3)

# 只清空画布，海龟仍然停留在当前的位置
#注意此时箭头所在的位置，注意与reset执行时的区别
t.clear()